X: 6
T: The Glen Of Aherlow
R: reel
M: 4/4
L: 1/8
K: Edor
B2AF BFAF|~E3F EDB,D|B2AF BFAF|DFAF FEEA|
B2AF BFAF|~E3F EDB,A,|B,E~E2 DEFA|BdAF FEE2:|
eB (3BBB egfe|fd (3ddd Adfd|eB~B2 egfe|dBAF FEEA|
eB (3BBB egfe|fd (3ddd Adfd|~B3d egfe|dBAF FEEA:|

composer: Sean Ryan
